X:1
T:Quand'io penso
T:Quand'io penso
T:Jean de Castro
T:Source : Chansons, madrigaux et motetz à 3 parties---Anvers---P.Phalèse---1582. Editor : André Vierendeels (07/02/16).
T:Notes : Original clefs : C1, C3, C4 Editorial accidentals above the staff 
T:©
T:©
T:©
T:©
T:©
T:©
T:©
T:©
T:©
T:©
C:Jean de Castro
Z:©
%%score [ 1 [ 2 3 ] ]
L:1/8
Q:1/4=120
M:2/2
K:C
V:1 treble nm="Superius" snm="S"
V:2 treble-8 nm="Tenor 1" snm="T 1"
V:3 treble-8 nm="Tenor 2" snm="T 2"
V:1
 z8 | z8 | G8 | c8- | c4 B4 | G8 | A4 B4- | B2 A2 G4- |"^#" G4 F4 | G8 | z4 G4 | G8- | G4 G4 | %13
w: ||Quand'|io|_ pen-|so'al|mar- ti-|||re,|quand'|io|_ pen-|
 A4 A4 | B8 | B8 | z4 G4 | c8 | z4 c4 | c8 | z4 A4 | G4 G4 | G4 G4 | E2 F2 D4 | D8 | z4 z2 G2 | %26
w: so'al mar-|ti-|re,|A-|mor,|A-|mor|che|tu mi|dai gra-|vos e for-|te,|cor-|
 A2 B2 c2 A2 | B4 A4- | A4 G4 | A8 | z4 G4 | A2 B2 c2 c2 | B4 A4 | z4 G4 | A2 B2 c2 A2 | B4 A4- | %36
w: ro per gir' a|mor- *||te,|cor-|ro per gir' a|mor- te,|cor-|ro per gir' a|mor- *|
 A2 G2 G4- |"^#" G4 F4 | G8 | z4 D4 | D4 E4 | F4 E4 | z4 G4 | G8- | G4 G4 | A8 | G2 F2 E2 D2 | E8 | %48
w: ||te,|co-|si spe-|ran- do,|co-|si|_ spe-|ran-||do,|
 z8 | z4 c4 | d8 | c8 | B8- | B4 G4 | A4 G4 | z8 | z8 | G8 | c8- | c4 B4 | G8 | A4 B4- | %62
w: |i|miei|dan-|ni|_ fi-|ni- re,|||ma|poi|_ ch'io|giun-|g'al pas-|
 B2 A2 G4- |"^#" G4 F4 | G8 | z4 G4 | G8- | G4 G4 | A4 A4 | B8 | B8 | z4 G4 | c8 | z4 c4 | c4 A4 | %75
w: ||so,|ma|poi|_ ch'io|giun- g'al|pas-|so|ch'e|port',|chee|port in|
 A4 A4 | G8- | G4 G4 | E2 F2 D4 | D8 | z4 z2 G2 | A2 B2 c2 A2 | B4 A4- | A4 G4 | A8 | z4 G4 | %86
w: que- sto|mar|_ pien|di tor- men-|to,|tan-|to pia- cer ne|sen- *||to,|tan-|
 A2 B2 c2 c2 | B4 A4 | z4 G4 | A2 B2 c2 A2 | B4 A4- | A2 G2 G4- |"^#" G4 F4 | G4 B4 | B4 B4 | %95
w: to pia- cer ne|sen- to,|tan-|to pia- cer ne|sen- *|||to, che|l'al- ma|
 c4 c4 | A8 | B4 G4 | A4 B4 | c8 | B4 z2 d2 | d8 | A8 | B4 c2 B2 | A4 G4 | A8 | G4 D4 | D4 D4 | %108
w: si rin-|for-|za, ond'|io nol|pas-|so, co-|s'il|vi-|ver m'an- *||ci-|de, co-|si la|
 D8- | D8 | E8 | G8- | G4 G4 | A4 B4 | c8 | B8- | B8 | z4 G4- | G4 G4 | c8- | c4 B4 | A4 G4 | A8 | %123
w: mor-||te|mi|_ ri-|tor- n'in|vi-|ta,|_|O|_ mi-|se-|* ria|in fi-|ni-|
"^#" G8 | z4 D4 | E4 E4 | D4 G4 | G6 G2 | E4 F4 | D8 | E8 | z4 D4 | E4 E4 | D4 G4 | G8- | G4 G4 | %136
w: ta,|che|l'un ap-|por- te|l'al- tra|non re-|ci-|de,|che|l'un ap-|por- te|l'al-|* tra|
 E4 F4 | D8 | E8 |] %139
w: non re-|ci-|de.|
V:2
 c8 | f8- | f4 e4 | c4 e4 | d8 | e4 e4 | e4 d4 | e4 d4 | c8 | B4 d4 | e8- | e4 d4 | e4 g4 | ^f8 | %14
w: Quand'|io|_ pen-|so'al mar-|ti-|re, quand'|io pen-|so'al mar-|ti-|re, quand'|io|_ pen-|so'al mar-|ti-|
 g4 d4 | g8 | z4 e4 | a4 z2 g2 | a8 | z4 a4 | f4 f4 | e8- | e4 d4 | c2 c2 B4 | A4 f4 | %25
w: re, A-|mor,|A-|mor, A-|mor|che|tu mi|dai|_ gra-|vos e for-|te, cor-|
 e2 d2 c2 B2 | A4 A2 A2 | d2 d2 c2 c2 | B8 | A4 d4 | G2 A2 B2 c2 | A4 G2 e2 | ^f2 g2 a2 f2 | %33
w: ro per- gir' a|mor te, cor-|ro per- gir' a|mor-|te, cor-|ro per- gir' a|mor- te, cor-|ro per gir' a|
"^#" g2 f2 e2 d2 | e2 g4 ^f2 | g2 G2 A2 d2 | c4 B4 | A8 | G8 | z4 B4 | B4 B4 | c8 | d8 | z4 e4 | %44
w: mor- * * *||te, cor- ro per|gir' a|mor-|te,|co-|si spe-|ran-|do,|co-|
 d4 e4 | f8 | e4 g4- | g4 a4- | a4 g4 | f4 e4 | d4 g4 | z4 e4 | g4 g4 | g4 d4 | f4 e4 | z4 c4 | %56
w: si spe-|ran-|do i|_ miei|_ dan-|ni fi-|ni- re|i|miei dan-|ni fi-|ni- re,|ma|
 f8- | f4 e4 | c4 e4 | d8 | e4 e4 | e4 d4 | e4 d4 | c8 | B4 d4 | e8- | e4 d4 | e4 g4- | g4 ^f4 | %69
w: poi|_ ch'io|giun- g'al|pas-|so, ma|poi ch'io|giun- g'al|pas-|so,, ma|poi|_ ch'io|giun- g'al|_ pas-|
 g4 d4 | g8 | z4 e4 | a4 z2 g2 | a8 | z4 f4 | f4 f4 | e8- | e4 d4 | c2 c2 B4 | A4 f4 | %80
w: so, ch'e|port'|ch'e|port', ch'e|port'|in|que- sto|mar|_ pien|di tor- men-|to, tan-|
 e2 d2 c2 B2 | A4 A2 A2 | d2 d2 c2 c2 | B8 | A4 d4 | G2 A2 B2 c2 | A4 G2 e2 | ^f2 g2 a2 f2 | %88
w: to pia- cer ne|sen- to tan-|to pia- cer ne|sen-|o, tan-|to pia- cer ne|sen- to, tan-|to pia- cer ne|
 g2 f2 e2 d2 | ef g4 f2 | g2 G2 A2 d2 | c4 B4 | A8 | G4 z2 g2 | g4 g4 | e4 e4 | f8 | d4 d4 | %98
w: sen- to, tan- to|pia- * cer ne|sen- * * *||to,|_ che|l'al- ma|si rin-|for-|za, ond'|
 f4 g4- | g4 f4 | g8 | z4 f4 | f8- | f4 e4 | f4 g4- |"^#" g4 f4 | g8 | z4 B4 | B4 B4 | B8 | %110
w: io nol|_ pas-|so,|co-|s'il|_ vi-|ver an-|* ci-|de,|co-|si la|mor-|
 c4 e4- | e4 d4 | e4 c2 d2 | e2 f2 g4- | g4 f4 | g4 d4- | d4 d4 | g8- | g4 f4 | e4 d4 | c8- | %121
w: te mi|_ ri-|tor- n'in _|_ _ _|* vi-|ta, O|_ mi-|se|_ ria|in- fi-|ni-|
 c4 B4 | A8 | B8 | z4 B4 | B4 c4 | B4 d4 | e6 d2 | c4 c4 | B8 | c8 | z4 B4 | B4 c4 | B4 d4 | e8- | %135
w: ||ta,|che|l'un ap-|por- te|l'al- tra|non re-|ci-|de,|che|l'un ap-|por- te|l'al|
 e4 d4 | c4 c4 | B8 | c8 |] %139
w: _ tra|non re-|ci-|de.|
V:3
 z8 | z8 | z8 | z8 | G8 | c8- | c4 B4 | G4 B4 | A8 | G4 G4 | c8- | c4 B4 | c4 e4 | d8 | G8 | %15
w: ||||Quand'|io|_ pen-|so'al mar-|ti-|re, quand'|io|_ pen-|so'al mar-|ti-|re,|
 z4 G4 | c8 | z4 c4 | f8 | z4 F4 | F4 F4 | c8- | c4 G4 | A2 F2 G4 | D4 d4 | c2 B2 A2 G2 | %26
w: A-|mor,|A-|mor|che|tu mi|dai|_ gra-|vos e for-|te, cor-|ro per gir' a|
 F2 G2 A2 F2 | G4 A4 | E8 | z4 D4 | E2 F2 G2 E2 | F4 C2 c2 | d2 e2 f2 d2 | e2 d2 c2 B2 | A2 G2 A4 | %35
w: mor- * * *||te,|cor-|ro per gir' a|mor- te, cor-|ro per gir' a|mor- * * *||
 G2 G2 D2 D2 | F2 F2 G4 | D8 | z4 G4 | G8- | G4 G4 | A8 | G8 | z4 c4 | B4 c4 | F8 | c8 | z4 c4 | %48
w: te, cor- ro per|gir' a mor-|te,|co-|si|_ spe-|ran-|do,|co-|si spe-|ran-|do|i|
 d8- | d4 c4 | B4 G4 | A8 | G8- | G8 | z8 | z8 | F8 | c8 | z8 | z4 G4 | c8- | c4 B4 | G4 B4 | A8 | %64
w: miei|_ dan-|ni fi-|ni-|re,||||ma|poi||ch'io|giun-|* g'al|pas- *||
 G4 G4 | c8- | c4 B4 | c4 e4 | d8 | G8 | z4 G4 | c8 | z4 c4 | f8 | z4 F4 | F4 F4 | c8- | c4 G4 | %78
w: so, ma|poi|_ ch'io|giun- g'al|pas-|so,|ch'e|port',|ch'e|port'|in|que- sto|mar|_ pien|
 A2 F2 G4 | D4 d4 | c2 B2 A2 G2 | F2 G2 A2 F2 | G4 A4 | E8 | z4 D4 | E2 F2 G2 E2 | F4 C2 c2 | %87
w: di tor- men-|to, tan-|to pia- cer ne|sen- * * *||to,-|tan-|to pia- cer ne|sen- to, tan-|
 d2 e2 f2 d2 | e2 d2 c2 B2 | A2 G2 A4 | G2 G2 D2 D2 | F2 F2 G4 | D8 | z4 G4 | G4 G4 | A4 A4 | D8 | %97
w: to pia- cer ne|sen- * to, tn-|to pia- cer|ne sen- to, pia-|cer ne sen-|to,|che|l'al- ma|si rin-|for-|
 G4 G4 | F4 E4 | A8 | G8 | z4 d4 | d8- | d4 c4 | d4 e4 | d8 | G8 | z4 G4 | G4 G4 | G8 | C4 c4- | %111
w: za, ond'|io nol|pas-|so,,|co-|s'il|_ vi-|ver an-|ci-|de,|co-|si la|mor-|te mi|
 c4 B4 | c8- | c4 B4 | A8 | G8 | z4 G4- | G4 G4 | c8- | c4 B4 | A4 G4 | F8- | F8 | E8 | z4 G4 | %125
w: _ ri-|tor-|* n'in|vi-|ta,|O|_ mi-|se|ia in-|* fi-|ni-||ta,|che|
 E4 C4 | G4 G4 | c6 G2 | A4 F4 | G8 | C8 | z4 G4 | E4 C4 | G4 G4 | c8- | c4 G4 | A4 F4 | G8 | C8 |] %139
w: l'un ap-|por- te|l'al- tra|non re-|ci-|de,|che|l'un ap-|por- te|l'al-|* tra|non re-|ci-|de.|

